remix/Design/brush-2-line.svg

<svg viewBox="0 0 24 24" fill="currentColor" xmlns="http://www.w3.org/2000/svg"><path d="M16.5357 15.9465L18.657 13.8252L15.475 10.6432L19.0106 7.10768L16.8892 4.98636L13.3537 8.52189L10.1717 5.33991L8.05041 7.46123L16.5357 15.9465ZM15.1215 17.3607L6.6362 8.87544L3.80777 11.7039L12.293 20.1892L15.1215 17.3607ZM13.3537 5.69346L16.1821 2.86504C16.5727 2.47451 17.2058 2.47451 17.5963 2.86504L21.1319 6.40057C21.5224 6.79109 21.5224 7.42426 21.1319 7.81478L18.3035 10.6432L20.7783 13.1181C21.1689 13.5086 21.1689 14.1418 20.7783 14.5323L13.0002 22.3105C12.6096 22.701 11.9765 22.701 11.5859 22.3105L1.68645 12.411C1.29592 12.0205 1.29592 11.3873 1.68645 10.9968L9.46462 3.21859C9.85515 2.82807 10.4883 2.82807 10.8788 3.21859L13.3537 5.69346Z"/></svg>

<svg viewBox="0 0 24 24" xmlns="http://www.w3.org/2000/svg"><path fill="none" d="M0 0h24v24H0Z"/><path d="M16.536 15.95l2.12-2.122 -3.19-3.19 3.53-3.535 -2.12-2.13 -3.54 3.535 -3.19-3.19 -2.122 2.12 8.486 8.486Zm-1.42 1.41L6.62 8.875l-2.83 2.82 8.48 8.485 2.82-2.83ZM13.34 5.69l2.82-2.83v0c.39-.4 1.02-.4 1.41 0l3.53 3.53v0c.39.39.39 1.02 0 1.41l-2.83 2.82 2.47 2.47v0c.39.39.39 1.02 0 1.41 -.01 0-.01 0-.01 0l-7.78 7.77h-.001c-.4.39-1.03.39-1.42 0l-9.9-9.9h-.001c-.4-.4-.4-1.03 0-1.42l7.77-7.78v0c.39-.4 1.02-.4 1.41-.01 0 0 0 0 0 0l2.47 2.47Z"/></svg>
